assets/images/faq-border.svg

<svg width="1344" height="330" viewBox="0 0 1344 330" fill="none" xmlns="http://www.w3.org/2000/svg">
<rect x="1.5" y="-1.5" width="1341" height="327" transform="matrix(1 0 0 -1 0 327)" stroke="url(#paint0_linear_1218_29)" stroke-width="3"/>
<path d="M1261.44 190.241C1263.38 186.508 1266.85 184.427 1271.87 183.995C1276.93 183.553 1281.69 184.496 1286.17 186.822L1289.96 188.79C1302.6 195.359 1306.38 203.55 1301.28 213.364C1300.14 215.559 1298.61 217.19 1296.69 218.255C1294.8 219.311 1292.87 219.867 1290.89 219.925C1288.93 219.994 1287 219.97 1285.11 219.852C1283.24 219.746 1281.56 219.819 1280.06 220.073C1278.6 220.316 1277.66 220.843 1277.23 221.656C1276.41 223.236 1275.33 223.679 1273.99 222.983L1266.58 219.134C1265.99 218.826 1265.59 218.383 1265.39 217.804C1265.22 217.215 1265.29 216.635 1265.59 216.065C1266.57 214.177 1267.8 212.696 1269.27 211.624C1270.75 210.551 1272.24 209.888 1273.73 209.635C1275.24 209.359 1276.81 209.184 1278.44 209.11C1280.09 209.047 1281.58 209.053 1282.9 209.129C1286.03 209.277 1288.05 208.473 1288.97 206.717C1289.88 204.96 1289.95 203.34 1289.19 201.857C1288.45 200.385 1286.77 198.97 1284.16 197.613L1282.48 196.741C1278.84 194.847 1275.64 194.903 1272.9 196.908C1270.84 198.458 1268.82 198.72 1266.85 197.694L1262.93 195.658C1261.85 195.099 1261.22 194.282 1261.03 193.205C1260.83 192.129 1260.97 191.141 1261.44 190.241ZM1258.73 227.643L1259.81 225.569C1260.56 224.12 1261.54 223.216 1262.72 222.859C1263.91 222.501 1265.2 222.681 1266.58 223.4L1270.63 225.504C1272.02 226.222 1272.9 227.171 1273.3 228.35C1273.69 229.529 1273.51 230.843 1272.75 232.292L1271.68 234.367C1270.95 235.772 1269.98 236.664 1268.78 237.044C1267.59 237.402 1266.3 237.221 1264.92 236.503L1260.87 234.399C1259.49 233.68 1258.6 232.731 1258.21 231.552C1257.83 230.352 1258 229.049 1258.73 227.643Z" fill="url(#paint1_linear_1218_29)"/>
<path d="M68.4431 69.802C69.5206 65.7366 72.4613 62.9457 77.2654 61.4293C82.0997 59.8952 86.9561 59.7747 91.8345 61.0677L95.9596 62.161C109.734 65.8118 115.205 72.982 112.371 83.6715C111.738 86.0629 110.6 87.9881 108.96 89.4472C107.349 90.8887 105.583 91.8539 103.662 92.3429C101.765 92.8382 99.8809 93.2346 98.0104 93.5323C96.1639 93.8363 94.5375 94.2754 93.1312 94.8497C91.7551 95.4063 90.9499 96.1271 90.7153 97.0119C90.259 98.7337 89.3014 99.4013 87.8427 99.0146L79.7718 96.8755C79.1261 96.7044 78.6419 96.3585 78.3192 95.8379C78.0267 95.2997 77.9629 94.7197 78.1277 94.0979C78.6728 92.0413 79.5491 90.3285 80.7566 88.9593C81.964 87.5901 83.2709 86.6184 84.6772 86.0442C86.0898 85.446 87.5823 84.933 89.1545 84.5051C90.7507 84.0836 92.2044 83.7651 93.5156 83.5495C96.6016 83.011 98.3982 81.7851 98.9052 79.872C99.4123 77.9589 99.1318 76.3617 98.0637 75.0805C97.0195 73.8056 95.0746 72.791 92.2288 72.0368L90.3994 71.5519C86.4297 70.4998 83.3257 71.2511 81.0873 73.8059C79.4154 75.7686 77.5033 76.4647 75.3511 75.8943L71.0825 74.7629C69.9107 74.4523 69.1129 73.793 68.689 72.7849C68.2652 71.7767 68.1832 70.7824 68.4431 69.802ZM73.9687 106.893L74.5676 104.633C74.9859 103.055 75.7365 101.961 76.8192 101.352C77.9019 100.744 79.1966 100.639 80.7032 101.038L85.1153 102.208C86.6219 102.607 87.6947 103.339 88.3337 104.404C88.9728 105.469 89.0832 106.791 88.6649 108.37L88.0659 110.629C87.6603 112.16 86.9129 113.241 85.8238 113.874C84.7411 114.483 83.4464 114.588 81.9399 114.188L77.5277 113.019C76.0212 112.62 74.9483 111.888 74.3093 110.822C73.6766 109.733 73.563 108.424 73.9687 106.893Z" fill="url(#paint2_linear_1218_29)"/>
<path d="M1268.5 98.1251C1266.63 94.3569 1267 90.3199 1269.62 86.014C1272.25 81.675 1275.82 78.3848 1280.34 76.1435L1284.17 74.2483C1296.93 67.9198 1305.77 69.7097 1310.68 79.6179C1311.78 81.8345 1312.2 84.0321 1311.92 86.2108C1311.66 88.3563 1310.97 90.2458 1309.84 91.8794C1308.74 93.502 1307.59 95.0414 1306.38 96.4976C1305.19 97.9428 1304.25 99.3447 1303.57 100.703C1302.91 102.029 1302.77 103.101 1303.18 103.921C1303.97 105.517 1303.69 106.65 1302.34 107.321L1294.86 111.029C1294.26 111.325 1293.67 111.384 1293.08 111.205C1292.51 110.993 1292.08 110.599 1291.79 110.022C1290.85 108.116 1290.38 106.25 1290.38 104.425C1290.39 102.599 1290.73 101.007 1291.41 99.6486C1292.08 98.2679 1292.87 96.8987 1293.77 95.541C1294.69 94.1723 1295.57 92.9749 1296.42 91.9489C1298.38 89.5106 1298.93 87.4048 1298.05 85.6315C1297.17 83.8582 1295.91 82.8415 1294.26 82.5813C1292.63 82.3101 1290.5 82.8282 1287.87 84.1357L1286.17 84.9762C1282.49 86.8 1280.65 89.4102 1280.65 92.8069C1280.68 95.3849 1279.7 97.1683 1277.71 98.1571L1273.75 100.118C1272.67 100.657 1271.63 100.686 1270.65 100.207C1269.67 99.7279 1268.95 99.0339 1268.5 98.1251ZM1297.09 122.388L1296.05 120.293C1295.33 118.83 1295.17 117.513 1295.59 116.342C1296 115.171 1296.9 114.239 1298.3 113.547L1302.39 111.52C1303.79 110.827 1305.08 110.672 1306.26 111.052C1307.44 111.432 1308.4 112.354 1309.12 113.817L1310.16 115.911C1310.86 117.33 1311.01 118.636 1310.61 119.83C1310.2 121.001 1309.29 121.933 1307.9 122.625L1303.81 124.652C1302.41 125.344 1301.12 125.5 1299.94 125.12C1298.74 124.717 1297.8 123.807 1297.09 122.388Z" fill="url(#paint3_linear_1218_29)"/>
<path d="M1194.06 263.267C1192.29 259.697 1192.65 255.872 1195.13 251.793C1197.61 247.682 1201 244.565 1205.28 242.442L1208.91 240.646C1221 234.651 1229.38 236.347 1234.03 245.733C1235.07 247.833 1235.46 249.915 1235.2 251.979C1234.95 254.012 1234.3 255.802 1233.23 257.35C1232.19 258.887 1231.1 260.345 1229.95 261.725C1228.82 263.094 1227.94 264.422 1227.29 265.709C1226.66 266.965 1226.54 267.981 1226.92 268.758C1227.67 270.27 1227.4 271.343 1226.12 271.978L1219.04 275.491C1218.47 275.772 1217.91 275.828 1217.35 275.658C1216.81 275.457 1216.4 275.084 1216.13 274.538C1215.24 272.732 1214.79 270.964 1214.8 269.235C1214.8 267.505 1215.13 265.997 1215.77 264.71C1216.41 263.402 1217.15 262.105 1218 260.818C1218.88 259.522 1219.71 258.387 1220.51 257.415C1222.38 255.105 1222.89 253.11 1222.06 251.43C1221.23 249.751 1220.03 248.787 1218.47 248.541C1216.93 248.284 1214.91 248.775 1212.41 250.013L1210.8 250.81C1207.32 252.537 1205.58 255.01 1205.57 258.228C1205.61 260.671 1204.68 262.36 1202.79 263.297L1199.04 265.155C1198.01 265.665 1197.03 265.693 1196.1 265.239C1195.17 264.785 1194.49 264.128 1194.06 263.267ZM1221.15 286.253L1220.17 284.268C1219.48 282.882 1219.33 281.634 1219.73 280.525C1220.12 279.415 1220.97 278.532 1222.3 277.876L1226.17 275.956C1227.5 275.3 1228.72 275.153 1229.84 275.513C1230.96 275.873 1231.86 276.746 1232.55 278.132L1233.53 280.117C1234.2 281.461 1234.34 282.698 1233.96 283.829C1233.57 284.938 1232.71 285.821 1231.39 286.477L1227.51 288.397C1226.19 289.053 1224.97 289.201 1223.85 288.84C1222.72 288.459 1221.82 287.597 1221.15 286.253Z" fill="url(#paint4_linear_1218_29)"/>
<path d="M46.1493 194.361C44.2815 190.593 44.6551 186.556 47.2701 182.25C49.8963 177.911 53.4703 174.621 57.9922 172.38L61.8159 170.485C74.5835 164.156 83.4229 165.946 88.3341 175.854C89.4328 178.071 89.8455 180.268 89.5724 182.447C89.3105 184.593 88.618 186.482 87.4949 188.116C86.3939 189.738 85.2379 191.278 84.0269 192.734C82.838 194.179 81.9037 195.581 81.2241 196.94C80.5557 198.265 80.4247 199.338 80.8312 200.158C81.6223 201.754 81.3418 202.887 79.9896 203.557L72.5086 207.265C71.9101 207.562 71.318 207.621 70.7322 207.441C70.1576 207.229 69.7275 206.835 69.4418 206.259C68.497 204.352 68.0277 202.487 68.034 200.661C68.0404 198.835 68.3834 197.243 69.063 195.885C69.7316 194.504 70.5164 193.135 71.4173 191.777C72.3403 190.409 73.2241 189.211 74.0685 188.185C76.0353 185.747 76.5792 183.641 75.7003 181.868C74.8213 180.095 73.558 179.078 71.9104 178.818C70.2849 178.546 68.1533 179.065 65.5156 180.372L63.8199 181.213C60.1403 183.036 58.3002 185.647 58.2994 189.043C58.3347 191.621 57.3549 193.405 55.3599 194.393L51.4033 196.355C50.3172 196.893 49.2826 196.923 48.2996 196.443C47.3165 195.964 46.5998 195.27 46.1493 194.361ZM74.7428 218.624L73.7045 216.53C72.9794 215.067 72.8235 213.75 73.2369 212.578C73.6504 211.407 74.5553 210.475 75.9518 209.783L80.0414 207.756C81.4379 207.064 82.7274 206.908 83.9099 207.288C85.0924 207.668 86.0462 208.59 86.7714 210.053L87.8096 212.148C88.5128 213.566 88.6632 214.872 88.2607 216.066C87.8473 217.237 86.9423 218.169 85.5459 218.861L81.4562 220.888C80.0598 221.58 78.7703 221.736 77.5878 221.356C76.3943 220.954 75.4459 220.043 74.7428 218.624Z" fill="url(#paint5_linear_1218_29)"/>
<path d="M113.357 240.062C115.342 236.48 118.782 234.545 123.679 234.256C128.608 233.958 133.222 234.999 137.521 237.381L141.155 239.394C153.292 246.118 156.752 254.19 151.533 263.608C150.366 265.716 148.834 267.263 146.938 268.25C145.074 269.228 143.177 269.719 141.247 269.724C139.338 269.74 137.465 269.666 135.628 269.502C133.812 269.35 132.172 269.377 130.708 269.585C129.276 269.783 128.344 270.272 127.912 271.052C127.072 272.569 126.009 272.971 124.724 272.259L117.612 268.319C117.043 268.004 116.668 267.562 116.488 266.994C116.34 266.416 116.417 265.854 116.721 265.306C117.725 263.494 118.96 262.085 120.425 261.079C121.891 260.074 123.356 259.467 124.821 259.26C126.297 259.031 127.828 258.902 129.414 258.872C131.022 258.854 132.47 258.899 133.759 259.007C136.801 259.233 138.789 258.503 139.723 256.817C140.657 255.132 140.772 253.557 140.068 252.093C139.386 250.641 137.791 249.22 135.283 247.831L133.671 246.938C130.174 245 127.064 244.971 124.343 246.851C122.297 248.306 120.326 248.508 118.43 247.458L114.669 245.374C113.636 244.802 113.04 243.99 112.88 242.937C112.719 241.884 112.879 240.926 113.357 240.062ZM109.75 276.397L110.853 274.406C111.623 273.015 112.592 272.161 113.759 271.844C114.927 271.527 116.174 271.736 117.501 272.471L121.389 274.625C122.716 275.361 123.555 276.307 123.905 277.465C124.255 278.623 124.045 279.897 123.274 281.288L122.171 283.279C121.424 284.627 120.461 285.471 119.282 285.809C118.115 286.126 116.868 285.917 115.54 285.182L111.653 283.028C110.325 282.292 109.487 281.346 109.137 280.188C108.798 279.009 109.003 277.746 109.75 276.397Z" fill="url(#paint6_linear_1218_29)"/>
<path d="M434 25H911" stroke="url(#paint7_linear_1218_29)" stroke-linecap="round"/>
<defs>
<linearGradient id="paint0_linear_1218_29" x1="640.703" y1="15.8147" x2="641.842" y2="351.376" gradientUnits="userSpaceOnUse">
<stop stop-color="#FFB75E"/>
<stop offset="0.857921" stop-color="#FFB75E" stop-opacity="0"/>
</linearGradient>
<linearGradient id="paint1_linear_1218_29" x1="1302.33" y1="163.116" x2="1251.62" y2="260.73" gradientUnits="userSpaceOnUse">
<stop stop-color="#FFB75E"/>
<stop offset="1" stop-color="#FFE5C5"/>
</linearGradient>
<linearGradient id="paint2_linear_1218_29" x1="102.433" y1="34.4049" x2="74.2516" y2="140.734" gradientUnits="userSpaceOnUse">
<stop stop-color="#FFD9A9"/>
<stop offset="1" stop-color="#FFE5C5"/>
</linearGradient>
<linearGradient id="paint3_linear_1218_29" x1="1270.75" y1="49.1025" x2="1319.6" y2="147.66" gradientUnits="userSpaceOnUse">
<stop stop-color="#FFD9A9"/>
<stop offset="1" stop-color="#FFE5C5"/>
</linearGradient>
<linearGradient id="paint4_linear_1218_29" x1="1196.06" y1="216.541" x2="1242.24" y2="309.723" gradientUnits="userSpaceOnUse">
<stop stop-color="#FFD9A9"/>
<stop offset="1" stop-color="#FFE5C5"/>
</linearGradient>
<linearGradient id="paint5_linear_1218_29" x1="48.3994" y1="145.339" x2="97.2507" y2="243.896" gradientUnits="userSpaceOnUse">
<stop stop-color="#FFD9A9"/>
<stop offset="1" stop-color="#FFE5C5"/>
</linearGradient>
<linearGradient id="paint6_linear_1218_29" x1="153.948" y1="214.59" x2="102.094" y2="308.186" gradientUnits="userSpaceOnUse">
<stop stop-color="#FFB75E"/>
<stop offset="1" stop-color="#FFE5C5"/>
</linearGradient>
<linearGradient id="paint7_linear_1218_29" x1="911" y1="25" x2="910.897" y2="31.9915" gradientUnits="userSpaceOnUse">
<stop stop-color="#FFDCB1"/>
<stop offset="0.506091" stop-color="#FFB75E"/>
<stop offset="1" stop-color="#FFE2BF" stop-opacity="0"/>
</linearGradient>
</defs>
</svg>

<svg width="1344" height="330" fill="none" xmlns="http://www.w3.org/2000/svg"><path transform="matrix(1 0 0 -1 0 327)" stroke="url(#a)" stroke-width="3" d="M1.5-1.5h1341v327H1.5z"/><path d="M1261.44 190.241c1.94-3.733 5.41-5.814 10.43-6.246 5.06-.442 9.82.501 14.3 2.827l3.79 1.968c12.64 6.569 16.42 14.76 11.32 24.574-1.14 2.195-2.67 3.826-4.59 4.891-1.89 1.056-3.82 1.612-5.8 1.67-1.96.069-3.89.045-5.78-.073-1.87-.106-3.55-.033-5.05.221-1.46.243-2.4.77-2.83 1.583-.82 1.58-1.9 2.023-3.24 1.327l-7.41-3.849c-.59-.308-.99-.751-1.19-1.33-.17-.589-.1-1.169.2-1.739.98-1.888 2.21-3.369 3.68-4.441 1.48-1.073 2.97-1.736 4.46-1.989 1.51-.276 3.08-.451 4.71-.525 1.65-.063 3.14-.057 4.46.019 3.13.148 5.15-.656 6.07-2.412.91-1.757.98-3.377.22-4.86-.74-1.472-2.42-2.887-5.03-4.244l-1.68-.872c-3.64-1.894-6.84-1.838-9.58.167-2.06 1.55-4.08 1.812-6.05.786l-3.92-2.036c-1.08-.559-1.71-1.376-1.9-2.453-.2-1.076-.06-2.064.41-2.964Zm-2.71 37.402 1.08-2.074c.75-1.449 1.73-2.353 2.91-2.71 1.19-.358 2.48-.178 3.86.541l4.05 2.104c1.39.718 2.27 1.667 2.67 2.846.39 1.179.21 2.493-.55 3.942l-1.07 2.075c-.73 1.405-1.7 2.297-2.9 2.677-1.19.358-2.48.177-3.86-.541l-4.05-2.104c-1.38-.719-2.27-1.668-2.66-2.847-.38-1.2-.21-2.503.52-3.909Z" fill="url(#b)"/><path d="M68.443 69.802c1.078-4.065 4.018-6.856 8.822-8.373 4.835-1.534 9.691-1.654 14.57-.361l4.125 1.093c13.774 3.65 19.245 10.821 16.411 21.51-.633 2.392-1.771 4.317-3.411 5.776-1.611 1.442-3.377 2.407-5.298 2.896a59.2 59.2 0 0 1-5.652 1.19c-1.846.303-3.473.742-4.879 1.317-1.376.556-2.181 1.277-2.416 2.162-.456 1.722-1.414 2.39-2.872 2.003l-8.071-2.14c-.646-.17-1.13-.516-1.453-1.037-.292-.538-.356-1.118-.191-1.74.545-2.057 1.421-3.77 2.629-5.139 1.207-1.369 2.514-2.34 3.92-2.915a35.121 35.121 0 0 1 4.477-1.539c1.597-.421 3.05-.74 4.362-.956 3.086-.538 4.882-1.764 5.39-3.677.506-1.913.226-3.51-.842-4.791-1.044-1.275-2.99-2.29-5.835-3.044l-1.83-.485c-3.97-1.052-7.073-.3-9.312 2.254-1.672 1.963-3.584 2.659-5.736 2.088l-4.269-1.131c-1.171-.31-1.97-.97-2.393-1.978-.424-1.008-.506-2.003-.246-2.983Zm5.526 37.091.599-2.26c.418-1.578 1.169-2.672 2.251-3.281 1.083-.608 2.378-.713 3.884-.314l4.412 1.17c1.507.399 2.58 1.131 3.219 2.196.639 1.065.75 2.387.33 3.966l-.598 2.259c-.406 1.531-1.153 2.612-2.242 3.245-1.083.609-2.378.714-3.884.314l-4.412-1.169c-1.507-.399-2.58-1.131-3.219-2.197-.632-1.089-.746-2.398-.34-3.929Z" fill="url(#c)"/><path d="M1268.5 98.125c-1.87-3.768-1.5-7.805 1.12-12.111 2.63-4.339 6.2-7.63 10.72-9.87l3.83-1.896c12.76-6.328 21.6-4.538 26.51 5.37 1.1 2.217 1.52 4.414 1.24 6.593-.26 2.145-.95 4.035-2.08 5.668a59.133 59.133 0 0 1-3.46 4.619c-1.19 1.445-2.13 2.847-2.81 4.205-.66 1.326-.8 2.398-.39 3.218.79 1.596.51 2.729-.84 3.4l-7.48 3.708c-.6.296-1.19.355-1.78.176-.57-.212-1-.606-1.29-1.183-.94-1.906-1.41-3.772-1.41-5.597.01-1.826.35-3.418 1.03-4.776.67-1.381 1.46-2.75 2.36-4.108.92-1.369 1.8-2.566 2.65-3.592 1.96-2.438 2.51-4.544 1.63-6.317-.88-1.774-2.14-2.79-3.79-3.05-1.63-.272-3.76.246-6.39 1.554l-1.7.84c-3.68 1.824-5.52 4.434-5.52 7.83.03 2.579-.95 4.362-2.94 5.351l-3.96 1.961c-1.08.539-2.12.568-3.1.089-.98-.48-1.7-1.173-2.15-2.082Zm28.59 24.263-1.04-2.095c-.72-1.463-.88-2.78-.46-3.951.41-1.171 1.31-2.103 2.71-2.795l4.09-2.027c1.4-.693 2.69-.848 3.87-.468 1.18.38 2.14 1.302 2.86 2.765l1.04 2.094c.7 1.419.85 2.725.45 3.919-.41 1.171-1.32 2.103-2.71 2.795l-4.09 2.027c-1.4.692-2.69.848-3.87.468-1.2-.403-2.14-1.313-2.85-2.732Z" fill="url(#d)"/><path d="M1194.06 263.267c-1.77-3.57-1.41-7.395 1.07-11.474 2.48-4.111 5.87-7.228 10.15-9.351l3.63-1.796c12.09-5.995 20.47-4.299 25.12 5.087 1.04 2.1 1.43 4.182 1.17 6.246-.25 2.033-.9 3.823-1.97 5.371a54.734 54.734 0 0 1-3.28 4.375c-1.13 1.369-2.01 2.697-2.66 3.984-.63 1.256-.75 2.272-.37 3.049.75 1.512.48 2.585-.8 3.22l-7.08 3.513c-.57.281-1.13.337-1.69.167-.54-.201-.95-.574-1.22-1.12-.89-1.806-1.34-3.574-1.33-5.303 0-1.73.33-3.238.97-4.525a34.843 34.843 0 0 1 2.23-3.892c.88-1.296 1.71-2.431 2.51-3.403 1.87-2.31 2.38-4.305 1.55-5.985-.83-1.679-2.03-2.643-3.59-2.889-1.54-.257-3.56.234-6.06 1.472l-1.61.797c-3.48 1.727-5.22 4.2-5.23 7.418.04 2.443-.89 4.132-2.78 5.069l-3.75 1.858c-1.03.51-2.01.538-2.94.084-.93-.454-1.61-1.111-2.04-1.972Zm27.09 22.986-.98-1.985c-.69-1.386-.84-2.634-.44-3.743.39-1.11 1.24-1.993 2.57-2.649l3.87-1.92c1.33-.656 2.55-.803 3.67-.443 1.12.36 2.02 1.233 2.71 2.619l.98 1.985c.67 1.344.81 2.581.43 3.712-.39 1.109-1.25 1.992-2.57 2.648l-3.88 1.92c-1.32.656-2.54.804-3.66.443-1.13-.381-2.03-1.243-2.7-2.587Z" fill="url(#e)"/><path d="M46.15 194.361c-1.868-3.768-1.495-7.805 1.12-12.111 2.626-4.339 6.2-7.629 10.722-9.87l3.824-1.895c12.767-6.329 21.607-4.539 26.518 5.369 1.099 2.217 1.511 4.414 1.238 6.593-.261 2.146-.954 4.035-2.077 5.669a59.28 59.28 0 0 1-3.468 4.618c-1.189 1.445-2.123 2.847-2.803 4.206-.668 1.325-.8 2.398-.393 3.218.791 1.596.51 2.729-.841 3.399l-7.481 3.708c-.599.297-1.191.356-1.777.176-.574-.212-1.004-.606-1.29-1.182-.945-1.907-1.414-3.772-1.408-5.598.006-1.826.35-3.418 1.029-4.776a35.118 35.118 0 0 1 2.354-4.108 47.392 47.392 0 0 1 2.651-3.592c1.967-2.438 2.511-4.544 1.632-6.317-.879-1.773-2.142-2.79-3.79-3.05-1.625-.272-3.757.247-6.394 1.554l-1.696.841c-3.68 1.823-5.52 4.434-5.52 7.83.035 2.578-.945 4.362-2.94 5.35l-3.957 1.962c-1.086.538-2.12.568-3.103.088-.983-.479-1.7-1.173-2.15-2.082Zm28.593 24.263-1.038-2.094c-.726-1.463-.882-2.78-.468-3.952.413-1.171 1.318-2.103 2.715-2.795l4.09-2.027c1.396-.692 2.685-.848 3.868-.468 1.182.38 2.136 1.302 2.861 2.765l1.039 2.095c.703 1.418.853 2.724.45 3.918-.413 1.171-1.318 2.103-2.714 2.795l-4.09 2.027c-1.396.692-2.686.848-3.868.468-1.194-.402-2.142-1.313-2.845-2.732Z" fill="url(#f)"/><path d="M113.357 240.062c1.985-3.582 5.425-5.517 10.322-5.806 4.929-.298 9.543.743 13.842 3.125l3.634 2.013c12.137 6.724 15.597 14.796 10.378 24.214-1.167 2.108-2.699 3.655-4.595 4.642-1.864.978-3.761 1.469-5.691 1.474a57.724 57.724 0 0 1-5.619-.222c-1.816-.152-3.456-.125-4.92.083-1.432.198-2.364.687-2.796 1.467-.84 1.517-1.903 1.919-3.188 1.207l-7.112-3.94c-.569-.315-.944-.757-1.124-1.325-.148-.578-.071-1.14.233-1.688 1.004-1.812 2.239-3.221 3.704-4.227 1.466-1.005 2.931-1.612 4.396-1.819a34.153 34.153 0 0 1 4.593-.388 46.258 46.258 0 0 1 4.345.135c3.042.226 5.03-.504 5.964-2.19.934-1.685 1.049-3.26.345-4.724-.682-1.452-2.277-2.873-4.785-4.262l-1.612-.893c-3.497-1.938-6.607-1.967-9.328-.087-2.046 1.455-4.017 1.657-5.913.607l-3.761-2.084c-1.033-.572-1.629-1.384-1.789-2.437-.161-1.053-.001-2.011.477-2.875Zm-3.607 36.335 1.103-1.991c.77-1.391 1.739-2.245 2.906-2.562 1.168-.317 2.415-.108 3.742.627l3.888 2.154c1.327.736 2.166 1.682 2.516 2.84.35 1.158.14 2.432-.631 3.823l-1.103 1.991c-.747 1.348-1.71 2.192-2.889 2.53-1.167.317-2.414.108-3.742-.627l-3.887-2.154c-1.328-.736-2.166-1.682-2.516-2.84-.339-1.179-.134-2.442.613-3.791Z" fill="url(#g)"/><path d="M434 25h477" stroke="url(#h)" stroke-linecap="round"/><defs><linearGradient id="a" x1="640.703" y1="15.815" x2="641.842" y2="351.376" gradientUnits="userSpaceOnUse"><stop stop-color="#FFB75E"/><stop offset=".858" stop-color="#FFB75E" stop-opacity="0"/></linearGradient><linearGradient id="b" x1="1302.33" y1="163.116" x2="1251.62" y2="260.73" gradientUnits="userSpaceOnUse"><stop stop-color="#FFB75E"/><stop offset="1" stop-color="#FFE5C5"/></linearGradient><linearGradient id="c" x1="102.433" y1="34.405" x2="74.252" y2="140.734" gradientUnits="userSpaceOnUse"><stop stop-color="#FFD9A9"/><stop offset="1" stop-color="#FFE5C5"/></linearGradient><linearGradient id="d" x1="1270.75" y1="49.102" x2="1319.6" y2="147.66" gradientUnits="userSpaceOnUse"><stop stop-color="#FFD9A9"/><stop offset="1" stop-color="#FFE5C5"/></linearGradient><linearGradient id="e" x1="1196.06" y1="216.541" x2="1242.24" y2="309.723" gradientUnits="userSpaceOnUse"><stop stop-color="#FFD9A9"/><stop offset="1" stop-color="#FFE5C5"/></linearGradient><linearGradient id="f" x1="48.399" y1="145.339" x2="97.251" y2="243.896" gradientUnits="userSpaceOnUse"><stop stop-color="#FFD9A9"/><stop offset="1" stop-color="#FFE5C5"/></linearGradient><linearGradient id="g" x1="153.948" y1="214.59" x2="102.094" y2="308.186" gradientUnits="userSpaceOnUse"><stop stop-color="#FFB75E"/><stop offset="1" stop-color="#FFE5C5"/></linearGradient><linearGradient id="h" x1="911" y1="25" x2="910.897" y2="31.991" gradientUnits="userSpaceOnUse"><stop stop-color="#FFDCB1"/><stop offset=".506" stop-color="#FFB75E"/><stop offset="1" stop-color="#FFE2BF" stop-opacity="0"/></linearGradient></defs></svg>
